resources/svg/flight-takeoff-fill.svg

<svg fill="currentColor" viewBox="0 0 24 24" xmlns="http://www.w3.org/2000/svg"><path d="M21.949 10.112C22.1634 10.9122 21.6886 11.7347 20.8884 11.9491L5.2218 16.1469C4.77856 16.2657 4.31138 16.0676 4.08866 15.6664L1.46582 10.9417L2.91471 10.5535L5.3825 12.998L10.4778 11.6328L5.96728 4.55914L7.89913 4.0415L14.8505 10.4611L20.1119 9.05131C20.9121 8.8369 21.7346 9.31177 21.949 10.112ZM4.00013 19.0002H20.0001V21.0002H4.00013V19.0002Z"/></svg>

<svg xmlns="http://www.w3.org/2000/svg" viewBox="0 0 24 24" fill="currentColor">
    <g>
        <path fill="none" d="M0 0h24v24H0z"/>
        <path d="M10.478 11.632L5.968 4.56l1.931-.518 6.951 6.42 5.262-1.41a1.5 1.5 0 0 1 .776 2.898L5.916 15.96l-.776-2.898.241-.065 2.467 2.445-2.626.704a1 1 0 0 1-1.133-.48L1.466 10.94l1.449-.388 2.466 2.445 5.097-1.366zM4 19h16v2H4v-2z"/>
    </g>
</svg>
